assets/logos/w3c_home.svg

<svg width="72" height="48" viewBox="0 0 72 48" xmlns="http://www.w3.org/2000/svg"><path d="m0 0h72v48h-72z" fill="#fff"/><path d="m0 0h72v1h-72z"/><path d="m0 47h72v1h-72z"/><path d="m20.149 8.815 5.759 19.58 5.759-19.58h4.17 11.443v1.946l-5.878 10.127c2.065 0.663 3.627 1.868 4.686 3.615s1.589 3.799 1.589 6.155c0 2.913-0.774 5.362-2.323 7.348s-3.555 2.978-6.017 2.978c-1.854 0-3.469-0.589-4.845-1.767-1.377-1.178-2.396-2.773-3.058-4.786l3.256-1.35c0.477 1.218 1.106 2.178 1.887 2.879 0.781 0.702 1.701 1.052 2.76 1.052 1.112 0 2.052-0.622 2.82-1.866 0.768-1.245 1.152-2.74 1.152-4.488 0-1.933-0.411-3.429-1.231-4.488-0.954-1.244-2.45-1.866-4.489-1.866h-1.588v-1.906l5.561-9.612h-6.712l-0.382 0.65-8.163 27.548h-0.397l-5.958-19.936-5.958 19.937h-0.397l-9.531-32.17h4.17l5.759 19.58 3.893-13.185-1.906-6.395z" fill="#005a9c"/><path d="m68.952 8.815c-0.819 0-1.554 0.295-2.111 0.861-0.591 0.6-0.92 1.376-0.92 2.178s0.313 1.545 0.887 2.128c0.583 0.591 1.334 0.912 2.145 0.912 0.793 0 1.562-0.321 2.161-0.903 0.574-0.557 0.886-1.301 0.886-2.137 0-0.811-0.321-1.57-0.878-2.136-0.583-0.591-1.343-0.903-2.17-0.903zm2.643 3.065c0 0.701-0.271 1.351-0.769 1.832-0.523 0.507-1.173 0.777-1.891 0.777-0.675 0-1.342-0.278-1.84-0.785-0.498-0.506-0.777-1.157-0.777-1.849s0.287-1.368 0.802-1.891c0.481-0.49 1.131-0.751 1.84-0.751 0.726 0 1.376 0.271 1.883 0.785 0.49 0.489 0.752 1.148 0.752 1.882zm-2.558-1.807h-1.3v3.445h0.65v-1.469h0.642l0.701 1.469h0.726l-0.769-1.571c0.498-0.101 0.785-0.439 0.785-0.928 0-0.625-0.473-0.946-1.435-0.946zm-0.119 0.422c0.608 0 0.886 0.169 0.886 0.591 0 0.405-0.278 0.549-0.87 0.549h-0.549v-1.14z"/><path d="m63.839 8.634 0.676 4.107-2.391 4.575s-0.918-1.941-2.443-3.015c-1.285-0.905-2.122-1.102-3.431-0.832-1.681 0.347-3.587 2.357-4.419 4.835-0.995 2.965-1.005 4.4-1.04 5.718-0.056 2.113 0.277 3.362 0.277 3.362s-1.451-2.686-1.438-6.62c9e-3 -2.808 0.451-5.354 1.75-7.867 1.143-2.209 2.842-3.535 4.35-3.691 1.559-0.161 2.791 0.59 3.743 1.404 0.999 0.854 2.01 2.72 2.01 2.72z"/><path d="m64.134 31.872s-1.057 1.889-1.715 2.617c-0.659 0.728-1.837 2.01-3.292 2.651-1.456 0.641-2.218 0.762-3.656 0.624-1.437-0.138-2.773-0.97-3.241-1.317s-1.664-1.369-2.339-2.322c-0.676-0.954-1.733-2.859-1.733-2.859s0.589 1.911 0.958 2.721c0.212 0.466 0.864 1.894 1.79 3.136 0.862 1.159 2.539 3.154 5.086 3.604 2.547 0.451 4.297-0.693 4.73-0.971 0.433-0.277 1.346-1.041 1.924-1.659 0.603-0.645 1.174-1.468 1.49-1.962 0.231-0.36 0.607-1.092 0.607-1.092z"/></svg>

<svg xmlns="http://www.w3.org/2000/svg" width="72" height="48" viewBox="0 0 72 48"><path fill="#fff" d="M 0 0 L 72 0 L 72 48 L 0 48 Z"/><path d="M 0 0 L 72 0 L 72 1 L 0 1 Z"/><path d="M 0 47 L 72 47 L 72 48 L 0 48 Z"/><path fill="#005a9c" d="M 20.149 8.815 L 25.908 28.395 L 31.667 8.815 L 35.837 8.815 L 47.28 8.815 L 47.28 10.761 L 41.402 20.888 C 43.467 21.551 45.029 22.756 46.088 24.503 C 47.147 26.25 47.677 28.302 47.677 30.658 C 47.677 33.571 46.903 36.02 45.354 38.006 C 43.805 39.992 41.799 40.984 39.337 40.984 C 37.483 40.984 35.868 40.395 34.492 39.217 C 33.115 38.039 32.096 36.444 31.434 34.431 L 34.69 33.081 C 35.167 34.299 35.796 35.259 36.577 35.96 C 37.358 36.662 38.278 37.012 39.337 37.012 C 40.449 37.012 41.389 36.39 42.157 35.146 C 42.925 33.901 43.309 32.406 43.309 30.658 C 43.309 28.725 42.898 27.229 42.078 26.17 C 41.124 24.926 39.628 24.304 37.589 24.304 L 36.001 24.304 L 36.001 22.398 L 41.562 12.786 L 34.85 12.786 L 34.468 13.436 L 26.305 40.984 L 25.908 40.984 L 19.95 21.048 L 13.992 40.985 L 13.595 40.985 L 4.064 8.815 L 8.234 8.815 L 13.993 28.395 L 17.886 15.21 L 15.98 8.815 Z"/><path d="M 68.952 8.815 C 68.133 8.815 67.398 9.11 66.841 9.676 C 66.25 10.276 65.921 11.052 65.921 11.854 C 65.921 12.656 66.234 13.399 66.808 13.982 C 67.391 14.573 68.142 14.894 68.953 14.894 C 69.746 14.894 70.515 14.573 71.114 13.991 C 71.688 13.434 72 12.69 72 11.854 C 72 11.043 71.679 10.284 71.122 9.718 C 70.539 9.127 69.779 8.815 68.952 8.815 Z M 71.595 11.88 C 71.595 12.581 71.324 13.231 70.826 13.712 C 70.303 14.219 69.653 14.489 68.935 14.489 C 68.26 14.489 67.593 14.211 67.095 13.704 C 66.597 13.198 66.318 12.547 66.318 11.855 C 66.318 11.163 66.605 10.487 67.12 9.964 C 67.601 9.474 68.251 9.213 68.96 9.213 C 69.686 9.213 70.336 9.484 70.843 9.998 C 71.333 10.487 71.595 11.146 71.595 11.88 Z M 69.037 10.073 L 67.737 10.073 L 67.737 13.518 L 68.387 13.518 L 68.387 12.049 L 69.029 12.049 L 69.73 13.518 L 70.456 13.518 L 69.687 11.947 C 70.185 11.846 70.472 11.508 70.472 11.019 C 70.472 10.394 69.999 10.073 69.037 10.073 Z M 68.918 10.495 C 69.526 10.495 69.804 10.664 69.804 11.086 C 69.804 11.491 69.526 11.635 68.934 11.635 L 68.385 11.635 L 68.385 10.495 Z"/><path d="M 63.839 8.634 L 64.515 12.741 L 62.124 17.316 C 62.124 17.316 61.206 15.375 59.681 14.301 C 58.396 13.396 57.559 13.199 56.25 13.469 C 54.569 13.816 52.663 15.826 51.831 18.304 C 50.836 21.269 50.826 22.704 50.791 24.022 C 50.735 26.135 51.068 27.384 51.068 27.384 C 51.068 27.384 49.617 24.698 49.63 20.764 C 49.639 17.956 50.081 15.41 51.38 12.897 C 52.523 10.688 54.222 9.362 55.73 9.206 C 57.289 9.045 58.521 9.796 59.473 10.61 C 60.472 11.464 61.483 13.33 61.483 13.33 Z"/><path d="M 64.134 31.872 C 64.134 31.872 63.077 33.761 62.419 34.489 C 61.76 35.217 60.582 36.499 59.127 37.14 C 57.671 37.781 56.909 37.902 55.471 37.764 C 54.034 37.626 52.698 36.794 52.23 36.447 C 51.762 36.1 50.566 35.078 49.891 34.125 C 49.215 33.171 48.158 31.266 48.158 31.266 C 48.158 31.266 48.747 33.177 49.116 33.987 C 49.328 34.453 49.98 35.881 50.906 37.123 C 51.768 38.282 53.445 40.277 55.992 40.727 C 58.539 41.178 60.289 40.034 60.722 39.756 C 61.155 39.479 62.068 38.715 62.646 38.097 C 63.249 37.452 63.82 36.629 64.136 36.135 C 64.367 35.775 64.743 35.043 64.743 35.043 Z"/></svg>
